Yosa-Max-Dark/places/16x16/mail-message.svg

<?xml version="1.0" encoding="UTF-8"?>
<svg id="svg6" version="1.1" viewBox="0 0 16 16" xmlns="http://www.w3.org/2000/svg">
 <defs id="defs3051">
  <style id="current-color-scheme" type="text/css">.ColorScheme-Text {
        color:#dfdfdf;
      }</style>
 </defs>
 <path id="path4" class="ColorScheme-Text" d="m12.285156 0.9296875c-0.043726-0.01186896-0.091353-0.00913784-0.142578 0.00585938-0.10245 0.02498002-0.166426 0.08895592-0.191406 0.19140622l-0.179688 0.703125-0.697265-0.1972656c-0.102451-0.0299944-0.189263-0.0071578-0.261719 0.0703125-0.07747 0.0724559-0.100307 0.1612216-0.070312 0.2636719l0.197265 0.6953125-0.705078 0.1816406c-0.09992 0.02498-0.163411 0.0870028-0.193359 0.1894531-0.025026 0.1049345-7.22e-4 0.1937002 0.074218 0.2636719l0.517578 0.5058594-0.517578 0.5058594c-0.07494 0.0699716-0.099198 0.1567842-0.074218 0.2617187 0.029948 0.1024503 0.093439 0.1664262 0.193359 0.1914063l0.705078 0.1796874-0.197265 0.6972657c-0.029995 0.1024503-0.007158 0.1892168 0.070312 0.2617187 0.072456 0.0774703 0.159268 0.1022141 0.261719 0.0722656l0.697265-0.1992187 0.179688 0.7050781c0.02498 0.1024503 0.088956 0.1678483 0.191406 0.1953125 0.104935 0.0249801 0.1937-0.0012318 0.263672-0.0761719l0.505859-0.515625 0.50586 0.515625c0.04996 0.0548825 0.113982 0.0839844 0.191406 0.0839844 0.017527 0 0.040272-0.0028901 0.070313-0.0078125 0.10245-0.0299944 0.166426-0.0953924 0.191406-0.1953125l0.179687-0.7050781 0.697266 0.1992187c0.102496 0.0299485 0.189309 0.0071578 0.261719-0.0703124 0.077516-0.0725019 0.102214-0.1612676 0.072265-0.2636719l-0.199219-0.6972657 0.705079-0.1796874c0.100058-0.0249801 0.165364-0.088956 0.195312-0.1914063 0.025026-0.1049805-0.00114-0.1917471-0.076172-0.2617187l-0.517578-0.5058594 0.517578-0.5058594c0.074986-0.0699717 0.101152-0.1587374 0.076172-0.2636719-0.029948-0.1024503-0.0953-0.1644731-0.195312-0.1894531l-0.705079-0.1816406 0.199219-0.6953125c0.029949-0.1024043 0.005297-0.191216-0.072265-0.2636719-0.07241-0.0774703-0.159223-0.1003069-0.261719-0.0703125l-0.697266 0.1972656-0.179687-0.703125c-0.02498-0.1024503-0.088956-0.1664262-0.191406-0.19140622-0.102497-0.02751024-0.189309-0.00462759-0.261719 0.07031252l-0.50586 0.5214844-0.505859-0.5214844c-0.036228-0.03873517-0.077367-0.06430294-0.121094-0.0761719zm-6.5156248 3.5800781c-1.5217895 0-2.807961 0.5203059-3.859375 1.5625-1.0421941 1.0421942-1.5625 2.3016733-1.5625 3.7773438 0 1.4848956 0.52030586 2.7488216 1.5625 3.7910156 1.0421942 1.032974 2.3283657 1.548828 3.859375 1.548828 0.7839494 0 1.4989242-0.146267 2.1445313-0.441406l-0.3867187-0.941406c-0.5164847 0.258239-1.1029856 0.386718-1.7578126 0.386718-1.2174306 0-2.2491432-0.418524-3.0976562-1.257812-0.848508-0.839288-1.2734375-1.868507-1.2734375-3.0859376 0-1.2174257 0.4249295-2.2446962 1.2734375-3.0839844 0.848513-0.8392882 1.8802256-1.2597656 3.0976562-1.2597656 1.2174257 0 2.2510964 0.4204774 3.0996094 1.2597656s1.2734374 1.8665587 1.2734374 3.0839844c0 1.3188836-0.3275899 1.9785156-0.9824218 1.9785156-0.2766894 0-0.4847046-0.097334-0.6230468-0.291016-0.1291224-0.193681-0.1933594-0.410595-0.1933594-0.65039v-3.6093752h-0.9960938v0.6210937h-0.0566406c-0.4703706-0.5441541-1.0593605-0.8144531-1.7695312-0.8144531-0.7193906 0-1.337031 0.2658519-1.8535156 0.8007812-0.5164847 0.5349343-0.7753907 1.2079125-0.7753907 2.0195313 0 0.8208431 0.258906 1.5002271 0.7753907 2.0351561 0.5164846 0.52571 1.1519182 0.787109 1.9082031 0.787109 0.8392882 0 1.485574-0.336489 1.9375-1.009765 0.3412482 0.673276 0.8571069 1.009765 1.5488281 1.009765 0.6732765 1e-6 1.184688-0.270298 1.535156-0.814453 0.359698-0.544154 0.541016-1.232431 0.541016-2.0624996 0-1.4756705-0.517812-2.7351496-1.5507814-3.7773438-1.0329743-1.0421941-2.3057996-1.5625-3.8183594-1.5625zm-0.0957031 3.625c0.4611508 0 0.8529777 0.1615715 1.1757813 0.484375 0.3320233 0.3228036 0.4980468 0.750227 0.4980468 1.2851563 1e-7 0.5349291-0.1660235 0.9643061-0.4980468 1.2871091-0.3228036 0.322804-0.7146305 0.484375-1.1757813 0.484375-0.4611458 0-0.8593779-0.161571-1.1914062-0.484375-0.3228036-0.322803-0.4824219-0.75218-0.4824219-1.2871091 0-0.5349293 0.1596183-0.9623527 0.4824219-1.2851563 0.3320283-0.3228035 0.7302604-0.484375 1.1914062-0.484375z" style="fill:#dfdfdf"/>
</svg>

<?xml version="1.0" encoding="UTF-8" standalone="no"?>
<svg
   xmlns:dc="http://purl.org/dc/elements/1.1/"
   xmlns:cc="http://creativecommons.org/ns#"
   xmlns:rdf="http://www.w3.org/1999/02/22-rdf-syntax-ns#"
   xmlns:svg="http://www.w3.org/2000/svg"
   xmlns="http://www.w3.org/2000/svg"
   xmlns:sodipodi="http://sodipodi.sourceforge.net/DTD/sodipodi-0.dtd"
   xmlns:inkscape="http://www.inkscape.org/namespaces/inkscape"
   viewBox="0 0 16 16"
   version="1.1"
   id="svg6"
   sodipodi:docname="mail-message.svg"
   inkscape:version="0.92.2 5c3e80d, 2017-08-06">
  <metadata
     id="metadata10">
    <rdf:RDF>
      <cc:Work
         rdf:about="">
        <dc:format>image/svg+xml</dc:format>
        <dc:type
           rdf:resource="http://purl.org/dc/dcmitype/StillImage" />
      </cc:Work>
    </rdf:RDF>
  </metadata>
  <sodipodi:namedview
     pagecolor="#ffffff"
     bordercolor="#666666"
     borderopacity="1"
     objecttolerance="10"
     gridtolerance="10"
     guidetolerance="10"
     inkscape:pageopacity="0"
     inkscape:pageshadow="2"
     inkscape:window-width="760"
     inkscape:window-height="480"
     id="namedview8"
     showgrid="false"
     inkscape:zoom="18.264648"
     inkscape:cx="0.66342298"
     inkscape:cy="8"
     inkscape:window-x="0"
     inkscape:window-y="0"
     inkscape:window-maximized="0"
     inkscape:current-layer="svg6" />
  <defs
     id="defs3051">
    <style
       type="text/css"
       id="current-color-scheme">
      .ColorScheme-Text {
        color:#dfdfdf;
      }
      </style>
  </defs>
  <path
     style="fill:#dfdfdf;fill-opacity:1;stroke:none"
     class="ColorScheme-Text"
     d="M 12.285156 0.9296875 C 12.24143 0.91781854 12.193803 0.92054966 12.142578 0.93554688 C 12.040128 0.9605269 11.976152 1.0245028 11.951172 1.1269531 L 11.771484 1.8300781 L 11.074219 1.6328125 C 10.971768 1.6028181 10.884956 1.6256547 10.8125 1.703125 C 10.73503 1.7755809 10.712193 1.8643466 10.742188 1.9667969 L 10.939453 2.6621094 L 10.234375 2.84375 C 10.134455 2.86873 10.070964 2.9307528 10.041016 3.0332031 C 10.01599 3.1381376 10.040294 3.2269033 10.115234 3.296875 L 10.632812 3.8027344 L 10.115234 4.3085938 C 10.040294 4.3785654 10.016036 4.465378 10.041016 4.5703125 C 10.070964 4.6727628 10.134455 4.7367387 10.234375 4.7617188 L 10.939453 4.9414062 L 10.742188 5.6386719 C 10.712193 5.7411222 10.73503 5.8278887 10.8125 5.9003906 C 10.884956 5.9778609 10.971768 6.0026047 11.074219 5.9726562 L 11.771484 5.7734375 L 11.951172 6.4785156 C 11.976152 6.5809659 12.040128 6.6463639 12.142578 6.6738281 C 12.247513 6.6988082 12.336278 6.6725963 12.40625 6.5976562 L 12.912109 6.0820312 L 13.417969 6.5976562 C 13.467929 6.6525387 13.531951 6.6816406 13.609375 6.6816406 C 13.626902 6.6816406 13.649647 6.6787505 13.679688 6.6738281 C 13.782138 6.6438337 13.846114 6.5784357 13.871094 6.4785156 L 14.050781 5.7734375 L 14.748047 5.9726562 C 14.850543 6.0026047 14.937356 5.979814 15.009766 5.9023438 C 15.087282 5.8298419 15.11198 5.7410762 15.082031 5.6386719 L 14.882812 4.9414062 L 15.587891 4.7617188 C 15.687949 4.7367387 15.753255 4.6727628 15.783203 4.5703125 C 15.808229 4.465332 15.782063 4.3785654 15.707031 4.3085938 L 15.189453 3.8027344 L 15.707031 3.296875 C 15.782017 3.2269033 15.808183 3.1381376 15.783203 3.0332031 C 15.753255 2.9307528 15.687903 2.86873 15.587891 2.84375 L 14.882812 2.6621094 L 15.082031 1.9667969 C 15.11198 1.8643926 15.087328 1.7755809 15.009766 1.703125 C 14.937356 1.6256547 14.850543 1.6028181 14.748047 1.6328125 L 14.050781 1.8300781 L 13.871094 1.1269531 C 13.846114 1.0245028 13.782138 0.9605269 13.679688 0.93554688 C 13.577191 0.90803664 13.490379 0.93091929 13.417969 1.0058594 L 12.912109 1.5273438 L 12.40625 1.0058594 C 12.370022 0.96712423 12.328883 0.94155646 12.285156 0.9296875 z M 5.7695312 4.5097656 C 4.2477417 4.5097656 2.9615702 5.0300715 1.9101562 6.0722656 C 0.86796211 7.1144598 0.34765625 8.3739389 0.34765625 9.8496094 C 0.34765625 11.334505 0.86796211 12.598431 1.9101562 13.640625 C 2.9523504 14.673599 4.2385219 15.189453 5.7695312 15.189453 C 6.5534806 15.189453 7.2684554 15.043186 7.9140625 14.748047 L 7.5273438 13.806641 C 7.0108591 14.06488 6.4243582 14.193359 5.7695312 14.193359 C 4.5521006 14.193359 3.520388 13.774835 2.671875 12.935547 C 1.823367 12.096259 1.3984375 11.06704 1.3984375 9.8496094 C 1.3984375 8.6321837 1.823367 7.6049132 2.671875 6.765625 C 3.520388 5.9263368 4.5521006 5.5058594 5.7695312 5.5058594 C 6.9869569 5.5058594 8.0206276 5.9263368 8.8691406 6.765625 C 9.7176536 7.6049132 10.142578 8.6321837 10.142578 9.8496094 C 10.142578 11.168493 9.8149881 11.828125 9.1601562 11.828125 C 8.8834668 11.828125 8.6754516 11.730791 8.5371094 11.537109 C 8.407987 11.343428 8.34375 11.126514 8.34375 10.886719 L 8.34375 7.2773438 L 7.3476562 7.2773438 L 7.3476562 7.8984375 L 7.2910156 7.8984375 C 6.820645 7.3542834 6.2316551 7.0839844 5.5214844 7.0839844 C 4.8020938 7.0839844 4.1844534 7.3498363 3.6679688 7.8847656 C 3.1514841 8.4196999 2.8925781 9.0926781 2.8925781 9.9042969 C 2.8925781 10.72514 3.1514841 11.404524 3.6679688 11.939453 C 4.1844534 12.465163 4.819887 12.726562 5.5761719 12.726562 C 6.4154601 12.726562 7.0617459 12.390073 7.5136719 11.716797 C 7.8549201 12.390073 8.3707788 12.726562 9.0625 12.726562 C 9.7357765 12.726563 10.247188 12.456264 10.597656 11.912109 C 10.957354 11.367955 11.138672 10.679678 11.138672 9.8496094 C 11.138672 8.3739389 10.62086 7.1144598 9.5878906 6.0722656 C 8.5549163 5.0300715 7.282091 4.5097656 5.7695312 4.5097656 z M 5.6738281 8.1347656 C 6.1349789 8.1347656 6.5268058 8.2963371 6.8496094 8.6191406 C 7.1816327 8.9419442 7.3476562 9.3693676 7.3476562 9.9042969 C 7.3476563 10.439226 7.1816327 10.868603 6.8496094 11.191406 C 6.5268058 11.51421 6.1349789 11.675781 5.6738281 11.675781 C 5.2126823 11.675781 4.8144502 11.51421 4.4824219 11.191406 C 4.1596183 10.868603 4 10.439226 4 9.9042969 C 4 9.3693676 4.1596183 8.9419442 4.4824219 8.6191406 C 4.8144502 8.2963371 5.2126823 8.1347656 5.6738281 8.1347656 z "
     id="path4" />
</svg>
